X: 33732
T: Ratholdran Castle
R: reel
M: 4/4
K: Gmajor
G,2B,A, G,B,DG|EDEF GABG|AGAB GEDB,|DEGB ~A2Bd|d2Bd edBd|
[1 gedB AcBA|GABd gedB|AcBA GEDB,:|2 gedB AcBA|GA(3Bcd gedB|AcBA GABd||
d2Bd gedg|egdB A2Bd|d2Bd gedg|e^def gbaf|
gedB A2BA|GBAF GEDB,|G,2B,D GBdB|1 AGAB GABc:|2 AGAB GEDB,||

